
MODULE playweld
	PROC stripwelds()
		MoveJ [[1218.71,1793.91,65.19],[0.0419084,-0.342907,0.938089,0.0254502],[0,1,-2,1],[9E+09,9E+09,9E+09,9E+09,9E+09,9E+09]], v2000, z50, tWeldGun;
		MoveL [[1219.65,1790.90,-7.91],[0.0418584,-0.342911,0.93809,0.0254654],[0,1,-2,1],[9E+09,9E+09,9E+09,9E+09,9E+09,9E+09]], v2000, z50, tWeldGun;
		ArcLStart [[1219.68,1790.90,-12.85],[0.0418851,-0.342923,0.938084,0.0254493],[0,1,-2,1],[9E+09,9E+09,9E+09,9E+09,9E+09,9E+09]], v30, seam13, weld13\Weave:=weave1, fine, tWeldGun;
		ArcL [[1235.67,1790.89,-11.88],[0.0418682,-0.342916,0.938088,0.0254542],[0,1,-2,1],[9E+09,9E+09,9E+09,9E+09,9E+09,9E+09]], v30, seam12, weld13\Weave:=weave1, z10, tWeldGun;
		ArcLEnd [[1253.27,1790.90,-11.88],[0.0418644,-0.342913,0.938089,0.0254633],[0,1,-2,1],[9E+09,9E+09,9E+09,9E+09,9E+09,9E+09]], v30, seam12, weld13\Weave:=weave1, fine, tWeldGun;
		MoveL [[1253.25,1790.89,-4.28],[0.0418577,-0.342911,0.93809,0.0254667],[0,1,-2,1],[9E+09,9E+09,9E+09,9E+09,9E+09,9E+09]], v50, z5, tWeldGun;
		MoveL [[1219.25,1763.88,-5.28],[0.0418583,-0.342922,0.938086,0.0254537],[0,1,-1,1],[9E+09,9E+09,9E+09,9E+09,9E+09,9E+09]], v50, z5, tWeldGun;
		ArcLStart [[1219.25,1762.89,-12.28],[0.0418612,-0.342931,0.938082,0.0254498],[0,1,-1,1],[9E+09,9E+09,9E+09,9E+09,9E+09,9E+09]], v30, seam13, weld13\Weave:=weave1, fine, tWeldGun;
		ArcL [[1236.25,1762.88,-12.28],[0.041866,-0.342938,0.93808,0.0254359],[0,1,-1,1],[9E+09,9E+09,9E+09,9E+09,9E+09,9E+09]], v30, seam12, weld13\Weave:=weave1, z10, tWeldGun;
		ArcLEnd [[1256.25,1762.89,-12.28],[0.0418567,-0.342937,0.938081,0.0254525],[0,1,-2,1],[9E+09,9E+09,9E+09,9E+09,9E+09,9E+09]], v30, seam12, weld13\Weave:=weave1, fine, tWeldGun;
		MoveL [[1256.25,1762.88,-4.27],[0.0418586,-0.34293,0.938083,0.0254467],[0,1,-2,1],[9E+09,9E+09,9E+09,9E+09,9E+09,9E+09]], v50, z5, tWeldGun;
		MoveL [[1219.23,1745.87,-4.31],[0.0418458,-0.34295,0.938077,0.0254367],[0,1,-1,1],[9E+09,9E+09,9E+09,9E+09,9E+09,9E+09]], v50, z5, tWeldGun;
		ArcLStart [[1219.23,1745.85,-11.35],[0.041835,-0.342942,0.93808,0.0254311],[0,1,-1,1],[9E+09,9E+09,9E+09,9E+09,9E+09,9E+09]], v30, seam13, weld13\Weave:=weave1, fine, tWeldGun;
		ArcL [[1237.22,1745.85,-11.35],[0.0418307,-0.342945,0.938079,0.0254337],[0,1,-1,1],[9E+09,9E+09,9E+09,9E+09,9E+09,9E+09]], v30, seam12, weld13\Weave:=weave1, z10, tWeldGun;
		ArcLEnd [[1253.24,1745.85,-11.34],[0.0418362,-0.342925,0.938086,0.0254331],[0,1,-1,1],[9E+09,9E+09,9E+09,9E+09,9E+09,9E+09]], v30, seam12, weld13\Weave:=weave1, fine, tWeldGun;
		MoveL [[1253.24,1745.85,-2.35],[0.0418346,-0.342921,0.938088,0.0254317],[0,1,-1,1],[9E+09,9E+09,9E+09,9E+09,9E+09,9E+09]], v50, z5, tWeldGun;
		MoveL [[1217.23,1717.85,-2.37],[0.0418257,-0.342936,0.938083,0.0254285],[0,0,-1,1],[9E+09,9E+09,9E+09,9E+09,9E+09,9E+09]], v50, z5, tWeldGun;
		ArcLStart [[1220.23,1717.81,-11.42],[0.0418268,-0.342956,0.938077,0.0253859],[0,0,-1,1],[9E+09,9E+09,9E+09,9E+09,9E+09,9E+09]], v30, seam13, weld13\Weave:=weave1, fine, tWeldGun;
		ArcL [[1236.23,1717.81,-11.42],[0.0418301,-0.342966,0.938073,0.0253758],[0,0,-1,1],[9E+09,9E+09,9E+09,9E+09,9E+09,9E+09]], v30, seam12, weld13\Weave:=weave1, z10, tWeldGun;
		ArcLEnd [[1254.22,1717.81,-11.45],[0.0418188,-0.342967,0.938073,0.025376],[0,1,-1,1],[9E+09,9E+09,9E+09,9E+09,9E+09,9E+09]], v30, seam12, weld13\Weave:=weave1, fine, tWeldGun;
		MoveL [[1254.22,1717.81,-2.44],[0.0418211,-0.342972,0.938071,0.0253748],[0,1,-1,1],[9E+09,9E+09,9E+09,9E+09,9E+09,9E+09]], v50, z5, tWeldGun;
		MoveL [[1218.20,1698.81,-2.44],[0.0418103,-0.342973,0.938071,0.0253829],[0,0,-1,1],[9E+09,9E+09,9E+09,9E+09,9E+09,9E+09]], v50, z5, tWeldGun;
		ArcLStart [[1219.20,1698.79,-11.48],[0.0418037,-0.342982,0.938069,0.0253651],[0,0,-1,1],[9E+09,9E+09,9E+09,9E+09,9E+09,9E+09]], v30, seam13, weld13\Weave:=weave1, fine, tWeldGun;
		ArcL [[1237.18,1699.78,-10.52],[0.0417941,-0.343028,0.938053,0.025342],[0,0,-1,1],[9E+09,9E+09,9E+09,9E+09,9E+09,9E+09]], v30, seam12, weld13\Weave:=weave1, fine, tWeldGun;
		ArcLEnd [[1253.17,1699.76,-10.56],[0.0417846,-0.343017,0.938058,0.0253336],[0,0,-1,1],[9E+09,9E+09,9E+09,9E+09,9E+09,9E+09]], v30, seam12, weld13\Weave:=weave1, z5, tWeldGun;
		MoveL [[1253.17,1699.76,-4.56],[0.0417857,-0.343014,0.938059,0.0253313],[0,0,-1,1],[9E+09,9E+09,9E+09,9E+09,9E+09,9E+09]], v50, z5, tWeldGun;
		MoveL [[1219.15,1670.75,-4.60],[0.0417719,-0.343034,0.938052,0.025323],[0,0,-1,1],[9E+09,9E+09,9E+09,9E+09,9E+09,9E+09]], v50, z5, tWeldGun;
		ArcLStart [[1219.17,1669.75,-10.60],[0.0417701,-0.343003,0.938063,0.0253376],[0,0,-1,1],[9E+09,9E+09,9E+09,9E+09,9E+09,9E+09]], v30, seam13, weld13\Weave:=weave1, fine, tWeldGun;
		ArcL [[1237.17,1670.76,-10.60],[0.0417695,-0.342998,0.938065,0.0253431],[0,0,-1,1],[9E+09,9E+09,9E+09,9E+09,9E+09,9E+09]], v30, seam13, weld13\Weave:=weave1, z10, tWeldGun;
		ArcLEnd [[1253.15,1670.73,-10.65],[0.0417444,-0.342981,0.938072,0.0253492],[0,0,-1,1],[9E+09,9E+09,9E+09,9E+09,9E+09,9E+09]], v30, seam13, weld13\Weave:=weave1, fine, tWeldGun;
		MoveL [[1253.14,1670.74,-3.65],[0.0417305,-0.342973,0.938075,0.0253696],[0,0,-1,1],[9E+09,9E+09,9E+09,9E+09,9E+09,9E+09]], v50, z5, tWeldGun;
		MoveL [[1216.15,1653.73,-3.65],[0.0417437,-0.342987,0.93807,0.0253447],[0,0,-1,1],[9E+09,9E+09,9E+09,9E+09,9E+09,9E+09]], v50, z5, tWeldGun;
		ArcLStart [[1218.15,1653.72,-10.66],[0.041746,-0.343008,0.938063,0.0253265],[0,0,-1,1],[9E+09,9E+09,9E+09,9E+09,9E+09,9E+09]], v30, seam13, weld13\Weave:=weave1, fine, tWeldGun;
		ArcL [[1236.13,1653.72,-10.71],[0.0417254,-0.343005,0.938065,0.0253343],[0,0,-1,1],[9E+09,9E+09,9E+09,9E+09,9E+09,9E+09]], v30, seam13, weld13\Weave:=weave1, z10, tWeldGun;
		ArcLEnd [[1254.11,1653.71,-9.75],[0.0417097,-0.343003,0.938066,0.0253317],[0,0,-1,1],[9E+09,9E+09,9E+09,9E+09,9E+09,9E+09]], v30, seam13, weld13\Weave:=weave1, fine, tWeldGun;
		MoveL [[1254.11,1653.71,-0.75],[0.0416999,-0.342994,0.93807,0.0253443],[0,0,-1,1],[9E+09,9E+09,9E+09,9E+09,9E+09,9E+09]], v50, z5, tWeldGun;
		MoveL [[1215.99,1624.74,-0.79],[0.0417005,-0.343021,0.938061,0.0253158],[0,0,-1,1],[9E+09,9E+09,9E+09,9E+09,9E+09,9E+09]], v50, z5, tWeldGun;
		ArcLStart [[1219.07,1628.62,-9.78],[0.041696,-0.343032,0.938057,0.0253139],[0,0,-1,1],[9E+09,9E+09,9E+09,9E+09,9E+09,9E+09]], v30, seam13, weld13\Weave:=weave1, fine, tWeldGun;
		ArcL [[1235.22,1623.68,-9.83],[0.0416621,-0.343032,0.938058,0.0253246],[0,0,-1,1],[9E+09,9E+09,9E+09,9E+09,9E+09,9E+09]], v30, seam13, weld13\Weave:=weave1, z10, tWeldGun;
		ArcLEnd [[1253.21,1623.68,-9.83],[0.0416543,-0.343038,0.938056,0.0253262],[0,0,-1,1],[9E+09,9E+09,9E+09,9E+09,9E+09,9E+09]], v30, seam13, weld13\Weave:=weave1, fine, tWeldGun;
		MoveL [[1253.20,1623.68,0.17],[0.0416539,-0.343032,0.938058,0.0253296],[0,0,-1,1],[9E+09,9E+09,9E+09,9E+09,9E+09,9E+09]], v50, z5, tWeldGun;
		MoveL [[1217.21,1608.68,0.19],[0.0416688,-0.343053,0.93805,0.0253117],[0,0,-1,1],[9E+09,9E+09,9E+09,9E+09,9E+09,9E+09]], v50, z5, tWeldGun;
		ArcLStart [[1219.17,1607.66,-10.87],[0.0416261,-0.343043,0.938056,0.0253289],[0,0,-1,1],[9E+09,9E+09,9E+09,9E+09,9E+09,9E+09]], v30, seam13, weld13\Weave:=weave1, fine, tWeldGun;
		ArcL [[1238.16,1607.65,-10.87],[0.0416187,-0.343044,0.938055,0.0253303],[0,0,-1,1],[9E+09,9E+09,9E+09,9E+09,9E+09,9E+09]], v30, seam13, weld13\Weave:=weave1, z10, tWeldGun;
		ArcLEnd [[1252.11,1607.64,-9.94],[0.0415697,-0.343018,0.938066,0.0253613],[0,0,-1,1],[9E+09,9E+09,9E+09,9E+09,9E+09,9E+09]], v30, seam13, weld13\Weave:=weave1, fine, tWeldGun;
		MoveL [[1252.12,1607.64,0.07],[0.0415737,-0.34303,0.938062,0.025355],[0,0,-1,1],[9E+09,9E+09,9E+09,9E+09,9E+09,9E+09]], v50, z5, tWeldGun;
		MoveL [[1218.11,1579.64,0.08],[0.0415663,-0.343029,0.938062,0.0253593],[0,0,-1,1],[9E+09,9E+09,9E+09,9E+09,9E+09,9E+09]], v50, z5, tWeldGun;
		ArcLStart [[1218.10,1579.63,-10.92],[0.0415674,-0.343044,0.938057,0.0253482],[0,0,-1,1],[9E+09,9E+09,9E+09,9E+09,9E+09,9E+09]], v30, seam13, weld13\Weave:=weave1, fine, tWeldGun;
		ArcL [[1237.09,1579.63,-10.92],[0.0415585,-0.343043,0.938058,0.0253532],[0,0,-1,1],[9E+09,9E+09,9E+09,9E+09,9E+09,9E+09]], v30, seam13, weld13\Weave:=weave1, z10, tWeldGun;
		ArcLEnd [[1252.08,1579.63,-10.95],[0.0415473,-0.343054,0.938054,0.0253478],[0,0,-1,1],[9E+09,9E+09,9E+09,9E+09,9E+09,9E+09]], v30, seam13, weld13\Weave:=weave1, fine, tWeldGun;
		MoveL [[1252.06,1579.63,-1.96],[0.0415323,-0.343048,0.938057,0.0253604],[0,0,-1,1],[9E+09,9E+09,9E+09,9E+09,9E+09,9E+09]], v50, z5, tWeldGun;
		!MoveL [[660.81,1431.59,74.93],[0.0682654,-0.753635,0.647573,0.0895791],[0,1,-2,0],[9E+09,9E+09,9E+09,9E+09,9E+09,9E+09]], v40, z5, tWeldGun;
		MoveL [[1219.09,1565.03,-1.96],[0.0415517,-0.343076,0.938047,0.0253268],[0,0,-1,1],[9E+09,9E+09,9E+09,9E+09,9E+09,9E+09]], v50, z5, tWeldGun;
		ArcLStart [[1218.07,1563.03,-10.18],[0.041532,-0.343061,0.938053,0.0253389],[0,0,-1,1],[9E+09,9E+09,9E+09,9E+09,9E+09,9E+09]], v30, seam13, weld13\Weave:=weave1, fine, tWeldGun;
		ArcL [[1236.07,1563.01,-10.18],[0.0415272,-0.343058,0.938054,0.0253419],[0,0,-1,1],[9E+09,9E+09,9E+09,9E+09,9E+09,9E+09]], v30, seam13, weld13\Weave:=weave1, z10, tWeldGun;
		ArcLEnd [[1252.67,1563.01,-10.18],[0.0415307,-0.343067,0.93805,0.0253357],[0,0,-1,1],[9E+09,9E+09,9E+09,9E+09,9E+09,9E+09]], v30, seam13, weld13\Weave:=weave1, fine, tWeldGun;
		MoveL [[1252.75,1562.98,-1.19],[0.0415768,-0.343025,0.938065,0.0253158],[0,0,-1,1],[9E+09,9E+09,9E+09,9E+09,9E+09,9E+09]], v50, z5, tWeldGun;
		MoveL [[1216.74,1532.98,-1.18],[0.0415743,-0.34303,0.938063,0.0253129],[0,0,-1,1],[9E+09,9E+09,9E+09,9E+09,9E+09,9E+09]], v50, z5, tWeldGun;
		ArcLStart [[1216.73,1533.99,-10.18],[0.0415641,-0.343037,0.938061,0.0253176],[0,0,-1,1],[9E+09,9E+09,9E+09,9E+09,9E+09,9E+09]], v30, seam13, weld13\Weave:=weave1, fine, tWeldGun;
		ArcL [[1239.73,1533.98,-9.18],[0.0415697,-0.343041,0.938059,0.0253097],[0,0,-1,1],[9E+09,9E+09,9E+09,9E+09,9E+09,9E+09]], v30, seam13, weld13\Weave:=weave1, z0, tWeldGun;
		ArcLEnd [[1253.73,1533.97,-9.18],[0.041574,-0.343048,0.938057,0.0253019],[0,0,-1,1],[9E+09,9E+09,9E+09,9E+09,9E+09,9E+09]], v30, seam13, weld13\Weave:=weave1, fine, tWeldGun;
		MoveL [[1253.72,1533.98,-3.18],[0.0415673,-0.343047,0.938057,0.0253073],[0,0,-1,1],[9E+09,9E+09,9E+09,9E+09,9E+09,9E+09]], v50, z5, tWeldGun;
		MoveL [[1217.71,1516.96,-3.22],[0.0415555,-0.343068,0.938051,0.0252888],[0,0,-1,1],[9E+09,9E+09,9E+09,9E+09,9E+09,9E+09]], v50, z5, tWeldGun;
		ArcLStart [[1217.70,1515.97,-9.21],[0.0415468,-0.343067,0.938051,0.0252986],[0,0,-1,1],[9E+09,9E+09,9E+09,9E+09,9E+09,9E+09]], v30, seam13, weld13\Weave:=weave1, fine, tWeldGun;
		ArcL [[1236.70,1515.96,-9.20],[0.0415471,-0.343067,0.938051,0.0252981],[0,0,-1,1],[9E+09,9E+09,9E+09,9E+09,9E+09,9E+09]], v30, seam13, weld13\Weave:=weave1, z0, tWeldGun;
		ArcLEnd [[1253.69,1515.96,-9.21],[0.0415433,-0.343074,0.938049,0.0252942],[0,0,-1,1],[9E+09,9E+09,9E+09,9E+09,9E+09,9E+09]], v30, seam13, weld13\Weave:=weave1, fine, tWeldGun;
		MoveL [[1253.69,1515.96,-0.21],[0.0415438,-0.343077,0.938048,0.0252913],[0,0,-1,1],[9E+09,9E+09,9E+09,9E+09,9E+09,9E+09]], v50, z5, tWeldGun;
		MoveL [[1215.70,1487.68,-0.20],[0.0415411,-0.34308,0.938047,0.025292],[0,0,-1,1],[9E+09,9E+09,9E+09,9E+09,9E+09,9E+09]], v50, z5, tWeldGun;
		ArcLStart [[1218.68,1487.68,-9.20],[0.0415325,-0.343098,0.938041,0.0252825],[0,0,-1,1],[9E+09,9E+09,9E+09,9E+09,9E+09,9E+09]], v30, seam13, weld13\Weave:=weave1, fine, tWeldGun;
		ArcL [[1237.68,1487.68,-8.20],[0.0415362,-0.3431,0.93804,0.0252808],[0,0,-1,1],[9E+09,9E+09,9E+09,9E+09,9E+09,9E+09]], v30, seam13, weld13\Weave:=weave1, z0, tWeldGun;
		ArcLEnd [[1255.67,1487.67,-8.22],[0.0415342,-0.343065,0.938052,0.0253042],[0,0,-1,1],[9E+09,9E+09,9E+09,9E+09,9E+09,9E+09]], v30, seam13, weld13\Weave:=weave1, fine, tWeldGun;
		MoveL [[1255.68,1487.67,0.79],[0.0415498,-0.343078,0.938047,0.025292],[0,0,-1,1],[9E+09,9E+09,9E+09,9E+09,9E+09,9E+09]], v50, z5, tWeldGun;
		MoveL [[1217.10,1471.69,0.78],[0.0415247,-0.343081,0.938047,0.0252962],[0,0,-1,1],[9E+09,9E+09,9E+09,9E+09,9E+09,9E+09]], v50, z5, tWeldGun;
		ArcLStart [[1218.09,1471.70,-8.24],[0.0415144,-0.3431,0.938041,0.0252879],[0,0,-1,1],[9E+09,9E+09,9E+09,9E+09,9E+09,9E+09]], v30, seam13, weld13\Weave:=weave1, fine, tWeldGun;
		ArcL [[1236.09,1471.68,-8.25],[0.0415087,-0.343071,0.938051,0.0253015],[0,0,-1,1],[9E+09,9E+09,9E+09,9E+09,9E+09,9E+09]], v30, seam13, weld13\Weave:=weave1, z0, tWeldGun;
		ArcLEnd [[1252.08,1471.69,-8.24],[0.0415083,-0.3431,0.938041,0.0252883],[0,0,-1,1],[9E+09,9E+09,9E+09,9E+09,9E+09,9E+09]], v30, seam13, weld13\Weave:=weave1, fine, tWeldGun;
		MoveL [[1252.07,1471.68,0.76],[0.0414979,-0.343086,0.938046,0.025301],[0,0,-1,1],[9E+09,9E+09,9E+09,9E+09,9E+09,9E+09]], v50, z5, tWeldGun;
		MoveL [[1217.07,1442.68,0.77],[0.0415099,-0.343115,0.938036,0.0252807],[0,0,-1,1],[9E+09,9E+09,9E+09,9E+09,9E+09,9E+09]], v50, z5, tWeldGun;
		ArcLStart [[1219.07,1442.68,-8.23],[0.0415048,-0.343119,0.938034,0.0252789],[0,0,-1,1],[9E+09,9E+09,9E+09,9E+09,9E+09,9E+09]], v30, seam13, weld13\Weave:=weave1, fine, tWeldGun;
		ArcL [[1235.05,1442.67,-7.26],[0.0414899,-0.343128,0.938032,0.0252698],[0,0,-1,1],[9E+09,9E+09,9E+09,9E+09,9E+09,9E+09]], v30, seam13, weld13\Weave:=weave1, z0, tWeldGun;
		ArcLEnd [[1253.05,1442.67,-7.25],[0.0414944,-0.343142,0.938027,0.0252632],[0,0,-1,1],[9E+09,9E+09,9E+09,9E+09,9E+09,9E+09]], v30, seam13, weld13\Weave:=weave1, fine, tWeldGun;
		MoveL [[1253.04,1442.66,-2.26],[0.0414836,-0.343128,0.938032,0.0252719],[0,0,-1,1],[9E+09,9E+09,9E+09,9E+09,9E+09,9E+09]], v50, z5, tWeldGun;
		MoveL [[1216.03,1427.66,-2.25],[0.0414862,-0.343145,0.938026,0.0252643],[0,0,-1,1],[9E+09,9E+09,9E+09,9E+09,9E+09,9E+09]], v50, z5, tWeldGun;
		ArcLStart [[1219.03,1426.65,-8.28],[0.0414905,-0.343191,0.93801,0.0252243],[0,0,-1,1],[9E+09,9E+09,9E+09,9E+09,9E+09,9E+09]], v30, seam13, weld13\Weave:=weave1, fine, tWeldGun;
		ArcL [[1236.02,1426.65,-7.31],[0.0414859,-0.343214,0.938002,0.0252095],[0,0,-1,1],[9E+09,9E+09,9E+09,9E+09,9E+09,9E+09]], v30, seam13, weld13\Weave:=weave1, z0, tWeldGun;
		ArcLEnd [[1254.00,1426.59,-6.37],[0.0414645,-0.343237,0.937996,0.0251652],[0,0,-1,1],[9E+09,9E+09,9E+09,9E+09,9E+09,9E+09]], v30, seam13, weld13\Weave:=weave1, fine, tWeldGun;
		MoveL [[1254.00,1426.59,3.64],[0.0414698,-0.343254,0.93799,0.0251549],[0,0,-1,1],[9E+09,9E+09,9E+09,9E+09,9E+09,9E+09]], v50, z5, tWeldGun;
		MoveL [[1216.99,1398.58,3.63],[0.0414637,-0.343266,0.937986,0.02515],[0,0,-1,1],[9E+09,9E+09,9E+09,9E+09,9E+09,9E+09]], v50, z5, tWeldGun;
		ArcLStart [[1217.97,1397.57,-7.39],[0.0414414,-0.343251,0.937992,0.0251569],[0,0,-1,1],[9E+09,9E+09,9E+09,9E+09,9E+09,9E+09]], v30, seam13, weld13\Weave:=weave1, fine, tWeldGun;
		ArcL [[1236.97,1397.56,-7.39],[0.0414394,-0.343256,0.93799,0.0251543],[0,0,-1,1],[9E+09,9E+09,9E+09,9E+09,9E+09,9E+09]], v30, seam13, weld13\Weave:=weave1, z0, tWeldGun;
		ArcLEnd [[1251.96,1397.56,-6.39],[0.0414331,-0.34326,0.937989,0.0251532],[0,0,-1,1],[9E+09,9E+09,9E+09,9E+09,9E+09,9E+09]], v30, seam13, weld13\Weave:=weave1, fine, tWeldGun;
		MoveL [[1251.96,1397.56,1.61],[0.0414325,-0.343265,0.937987,0.0251494],[0,0,-1,1],[9E+09,9E+09,9E+09,9E+09,9E+09,9E+09]], v50, z5, tWeldGun;
		MoveL [[1216.96,1382.56,1.62],[0.0414348,-0.343272,0.937985,0.0251475],[0,0,-1,1],[9E+09,9E+09,9E+09,9E+09,9E+09,9E+09]], v50, z5, tWeldGun;
		ArcLStart [[1217.95,1380.56,-7.38],[0.0414299,-0.343282,0.937981,0.0251436],[0,0,-1,1],[9E+09,9E+09,9E+09,9E+09,9E+09,9E+09]], v30, seam13, weld13\Weave:=weave1, fine, tWeldGun;
		ArcL [[1234.95,1380.56,-6.38],[0.0414285,-0.343284,0.937981,0.0251432],[0,0,-1,1],[9E+09,9E+09,9E+09,9E+09,9E+09,9E+09]], v30, seam13, weld13\Weave:=weave1, z0, tWeldGun;
		ArcLEnd [[1251.93,1380.55,-6.38],[0.0414221,-0.3433,0.937976,0.0251356],[0,0,-1,1],[9E+09,9E+09,9E+09,9E+09,9E+09,9E+09]], v30, seam13, weld13\Weave:=weave1, fine, tWeldGun;
		MoveL [[1251.93,1380.55,0.59],[0.0414083,-0.343293,0.937979,0.0251366],[0,0,-1,1],[9E+09,9E+09,9E+09,9E+09,9E+09,9E+09]], v50, z5, tWeldGun;
		MoveL [[1217.25,1353.43,0.38],[0.0411797,-0.343231,0.93801,0.0251802],[0,0,-1,1],[9E+09,9E+09,9E+09,9E+09,9E+09,9E+09]], v50, z5, tWeldGun;
		ArcLStart [[1216.24,1353.42,-6.61],[0.0411768,-0.343237,0.938008,0.0251764],[0,0,-1,1],[9E+09,9E+09,9E+09,9E+09,9E+09,9E+09]], v30, seam13, weld13\Weave:=weave1, fine, tWeldGun;
		ArcL [[1235.23,1352.43,-6.63],[0.0411734,-0.343283,0.937992,0.0251457],[0,0,-1,1],[9E+09,9E+09,9E+09,9E+09,9E+09,9E+09]], v30, seam13, weld13\Weave:=weave1, z0, tWeldGun;
		ArcLEnd [[1253.22,1353.43,-5.64],[0.0411693,-0.343301,0.937986,0.0251369],[0,0,-1,1],[9E+09,9E+09,9E+09,9E+09,9E+09,9E+09]], v30, seam13, weld13\Weave:=weave1, fine, tWeldGun;
		MoveL [[1253.22,1353.43,4.36],[0.0411701,-0.343308,0.937984,0.0251324],[0,0,-1,1],[9E+09,9E+09,9E+09,9E+09,9E+09,9E+09]], v50, z5, tWeldGun;
		MoveL [[1218.21,1336.82,1.30],[0.0411523,-0.343337,0.937975,0.0251047],[0,0,-1,1],[9E+09,9E+09,9E+09,9E+09,9E+09,9E+09]], v50, z5, tWeldGun;
		ArcLStart [[1218.20,1335.82,-5.73],[0.0411434,-0.343359,0.937967,0.0250865],[0,0,-1,1],[9E+09,9E+09,9E+09,9E+09,9E+09,9E+09]], v30, seam13, weld13\Weave:=weave1, fine, tWeldGun;
		ArcL [[1237.20,1335.82,-5.72],[0.0411457,-0.343369,0.937964,0.0250838],[0,0,-1,1],[9E+09,9E+09,9E+09,9E+09,9E+09,9E+09]], v30, seam13, weld13\Weave:=weave1, z0, tWeldGun;
		ArcLEnd [[1251.19,1335.82,-5.73],[0.0411403,-0.343371,0.937964,0.0250817],[0,0,-1,1],[9E+09,9E+09,9E+09,9E+09,9E+09,9E+09]], v30, seam13, weld13\Weave:=weave1, fine, tWeldGun;
		MoveL [[1251.18,1335.81,0.27],[0.0411316,-0.343358,0.937968,0.0250884],[0,0,-1,1],[9E+09,9E+09,9E+09,9E+09,9E+09,9E+09]], v50, z5, tWeldGun;
		MoveL [[1218.21,1309.37,0.28],[0.0411346,-0.343377,0.937962,0.0250812],[0,0,-1,1],[9E+09,9E+09,9E+09,9E+09,9E+09,9E+09]], v50, z5, tWeldGun;
		ArcLStart [[1218.21,1308.36,-5.71],[0.0411373,-0.343387,0.937958,0.0250754],[0,0,-1,1],[9E+09,9E+09,9E+09,9E+09,9E+09,9E+09]], v30, seam13, weld13\Weave:=weave1, fine, tWeldGun;
		ArcL [[1236.20,1308.36,-4.71],[0.0411327,-0.343395,0.937955,0.025071],[0,0,-1,1],[9E+09,9E+09,9E+09,9E+09,9E+09,9E+09]], v30, seam13, weld13\Weave:=weave1, z0, tWeldGun;
		ArcLEnd [[1252.20,1307.36,-4.71],[0.0411344,-0.343405,0.937952,0.0250664],[0,0,-1,1],[9E+09,9E+09,9E+09,9E+09,9E+09,9E+09]], v30, seam13, weld13\Weave:=weave1, fine, tWeldGun;
		MoveL [[1252.18,1307.35,1.25],[0.0411145,-0.343395,0.937956,0.0250688],[0,0,-1,1],[9E+09,9E+09,9E+09,9E+09,9E+09,9E+09]], v50, z5, tWeldGun;
		MoveL [[1218.22,1289.91,1.12],[0.0409865,-0.343387,0.937965,0.0250648],[0,0,-1,1],[9E+09,9E+09,9E+09,9E+09,9E+09,9E+09]], v50, z5, tWeldGun;
		ArcLStart [[1219.21,1290.90,-4.89],[0.0409786,-0.343387,0.937965,0.0250649],[0,0,-1,1],[9E+09,9E+09,9E+09,9E+09,9E+09,9E+09]], v40, seam13, weld13\Weave:=weave1, fine, tWeldGun;
		ArcL [[1236.20,1290.90,-4.89],[0.0409782,-0.343399,0.937961,0.0250593],[0,0,-1,1],[9E+09,9E+09,9E+09,9E+09,9E+09,9E+09]], v30, seam13, weld13\Weave:=weave1, z0, tWeldGun;
		ArcLEnd [[1250.20,1289.90,-4.88],[0.0409782,-0.343403,0.937959,0.0250585],[0,0,-1,1],[9E+09,9E+09,9E+09,9E+09,9E+09,9E+09]], v20, seam13, weld13\Weave:=weave1, fine, tWeldGun;
		MoveL [[1250.20,1289.90,2.12],[0.0409765,-0.343399,0.937961,0.0250603],[0,0,-1,1],[9E+09,9E+09,9E+09,9E+09,9E+09,9E+09]], v50, z5, tWeldGun;
		MoveL [[1216.19,1263.90,2.12],[0.0409721,-0.343418,0.937954,0.0250521],[0,0,-1,1],[9E+09,9E+09,9E+09,9E+09,9E+09,9E+09]], v50, z5, tWeldGun;
		ArcLStart [[1217.19,1262.90,-4.87],[0.0409731,-0.343424,0.937952,0.0250498],[0,0,-1,1],[9E+09,9E+09,9E+09,9E+09,9E+09,9E+09]], v40, seam13, weld13\Weave:=weave1, fine, tWeldGun;
		ArcL [[1236.19,1262.89,-4.87],[0.0409707,-0.343422,0.937953,0.0250517],[0,0,-1,1],[9E+09,9E+09,9E+09,9E+09,9E+09,9E+09]], v30, seam13, weld13\Weave:=weave1, z0, tWeldGun;
		ArcLEnd [[1252.18,1262.90,-4.86],[0.0409716,-0.343436,0.937948,0.0250468],[0,0,-1,1],[9E+09,9E+09,9E+09,9E+09,9E+09,9E+09]], v20, seam13, weld13\Weave:=weave1, fine, tWeldGun;
		MoveL [[1252.17,1262.88,2.10],[0.0409526,-0.343431,0.937951,0.0250459],[0,0,-1,1],[9E+09,9E+09,9E+09,9E+09,9E+09,9E+09]], v50, z5, tWeldGun;
		MoveL [[1218.16,1245.87,2.10],[0.0409501,-0.343445,0.937946,0.0250374],[0,0,-1,1],[9E+09,9E+09,9E+09,9E+09,9E+09,9E+09]], v50, z5, tWeldGun;
		ArcLStart [[1218.16,1244.88,-3.89],[0.040949,-0.343445,0.937946,0.0250402],[0,0,-1,1],[9E+09,9E+09,9E+09,9E+09,9E+09,9E+09]], v40, seam13, weld13\Weave:=weave1, fine, tWeldGun;
		ArcL [[1237.14,1245.86,-4.93],[0.0409235,-0.343446,0.937947,0.0250355],[0,0,-1,1],[9E+09,9E+09,9E+09,9E+09,9E+09,9E+09]], v30, seam13, weld13\Weave:=weave1, z0, tWeldGun;
		ArcLEnd [[1252.14,1245.86,-4.92],[0.0409259,-0.343451,0.937945,0.0250321],[0,0,-1,1],[9E+09,9E+09,9E+09,9E+09,9E+09,9E+09]], v20, seam13, weld13\Weave:=weave1, fine, tWeldGun;
		MoveL [[1252.13,1245.85,3.07],[0.0409172,-0.343439,0.937949,0.0250405],[0,0,-1,1],[9E+09,9E+09,9E+09,9E+09,9E+09,9E+09]], v50, z5, tWeldGun;
		MoveL [[1216.13,1216.85,3.08],[0.0409199,-0.34346,0.937942,0.0250297],[0,0,-1,1],[9E+09,9E+09,9E+09,9E+09,9E+09,9E+09]], v50, z5, tWeldGun;
		ArcLStart [[1219.12,1215.85,-4.92],[0.0409115,-0.343467,0.93794,0.0250272],[0,0,-1,1],[9E+09,9E+09,9E+09,9E+09,9E+09,9E+09]], v20, seam13, weld13\Weave:=weave1, fine, tWeldGun;
		ArcL [[1237.11,1215.85,-4.92],[0.0409147,-0.34348,0.937935,0.0250199],[0,0,-1,1],[9E+09,9E+09,9E+09,9E+09,9E+09,9E+09]], v30, seam13, weld13\Weave:=weave1, z0, tWeldGun;
		ArcLEnd [[1252.12,1216.84,-4.91],[0.0409145,-0.343476,0.937936,0.0250236],[0,0,-1,1],[9E+09,9E+09,9E+09,9E+09,9E+09,9E+09]], v40, seam13, weld13\Weave:=weave1, fine, tWeldGun;
		MoveL [[1252.12,1216.84,1.09],[0.0409078,-0.343457,0.937943,0.0250332],[0,0,-1,1],[9E+09,9E+09,9E+09,9E+09,9E+09,9E+09]], v50, z5, tWeldGun;
		MoveL [[1217.11,1198.84,1.10],[0.0409134,-0.343482,0.937934,0.0250225],[0,0,-1,1],[9E+09,9E+09,9E+09,9E+09,9E+09,9E+09]], v50, z5, tWeldGun;
		ArcLStart [[1219.10,1197.84,-3.93],[0.0409056,-0.343508,0.937926,0.0250032],[0,0,-1,1],[9E+09,9E+09,9E+09,9E+09,9E+09,9E+09]], v20, seam13, weld13\Weave:=weave1, fine, tWeldGun;
		ArcL [[1235.09,1198.83,-3.93],[0.0408944,-0.343502,0.937928,0.0250045],[0,0,-1,1],[9E+09,9E+09,9E+09,9E+09,9E+09,9E+09]], v30, seam13, weld13\Weave:=weave1, z0, tWeldGun;
		ArcLEnd [[1250.09,1198.84,-3.93],[0.0409019,-0.343521,0.937921,0.0249969],[0,0,-1,1],[9E+09,9E+09,9E+09,9E+09,9E+09,9E+09]], v40, seam13, weld13\Weave:=weave1, fine, tWeldGun;
		MoveL [[1250.09,1198.83,4.08],[0.0409005,-0.343515,0.937923,0.0250014],[0,0,-1,1],[9E+09,9E+09,9E+09,9E+09,9E+09,9E+09]], v50, z5, tWeldGun;
		MoveL [[1220.07,1168.83,4.08],[0.0408939,-0.343531,0.937918,0.0249958],[0,0,-1,1],[9E+09,9E+09,9E+09,9E+09,9E+09,9E+09]], v50, z5, tWeldGun;
		ArcLStart [[1220.06,1169.82,-3.94],[0.0408831,-0.343539,0.937916,0.0249881],[0,0,-1,1],[9E+09,9E+09,9E+09,9E+09,9E+09,9E+09]], v20, seam13, weld13\Weave:=weave1, fine, tWeldGun;
		ArcL [[1237.06,1169.82,-3.94],[0.0408816,-0.343542,0.937914,0.0249874],[0,0,-1,1],[9E+09,9E+09,9E+09,9E+09,9E+09,9E+09]], v30, seam13, weld13\Weave:=weave1, z0, tWeldGun;
		ArcLEnd [[1251.06,1169.82,-3.94],[0.0408817,-0.343549,0.937912,0.024985],[0,0,-1,1],[9E+09,9E+09,9E+09,9E+09,9E+09,9E+09]], v40, seam13, weld13\Weave:=weave1, fine, tWeldGun;
		MoveL [[1251.04,1169.81,8.02],[0.0408542,-0.343539,0.937917,0.0249869],[0,0,-1,1],[9E+09,9E+09,9E+09,9E+09,9E+09,9E+09]], v50, z5, tWeldGun;
		MoveL [[1217.03,1151.81,8.03],[0.040851,-0.343551,0.937913,0.024983],[0,0,-1,1],[9E+09,9E+09,9E+09,9E+09,9E+09,9E+09]], v50, z5, tWeldGun;
		ArcLStart [[1219.01,1151.80,-4.00],[0.0408369,-0.343556,0.937912,0.0249793],[0,0,-1,1],[9E+09,9E+09,9E+09,9E+09,9E+09,9E+09]], v30, seam13, weld13\Weave:=weave1, fine, tWeldGun;
		ArcL [[1235.00,1151.79,-4.00],[0.040833,-0.343563,0.93791,0.0249747],[0,0,-1,1],[9E+09,9E+09,9E+09,9E+09,9E+09,9E+09]], v30, seam13, weld13\Weave:=weave1, z0, tWeldGun;
		ArcLEnd [[1251.00,1151.79,-4.00],[0.0408302,-0.343562,0.93791,0.0249759],[0,0,-1,1],[9E+09,9E+09,9E+09,9E+09,9E+09,9E+09]], v30, seam13, weld13\Weave:=weave1, fine, tWeldGun;
		MoveL [[1251.00,1151.79,3.00],[0.0408262,-0.34356,0.937911,0.0249769],[0,0,-1,1],[9E+09,9E+09,9E+09,9E+09,9E+09,9E+09]], v50, z5, tWeldGun;
		MoveL [[1218.99,1122.79,3.01],[0.0408221,-0.343572,0.937907,0.0249728],[0,0,-1,1],[9E+09,9E+09,9E+09,9E+09,9E+09,9E+09]], v50, z5, tWeldGun;
		ArcLStart [[1218.99,1122.99,-4.98],[0.0408264,-0.343581,0.937903,0.0249699],[0,0,-1,1],[9E+09,9E+09,9E+09,9E+09,9E+09,9E+09]], v30, seam13, weld13\Weave:=weave1, fine, tWeldGun;
		ArcL [[1234.58,1123.58,-4.38],[0.0408171,-0.343589,0.937901,0.0249669],[0,0,-1,1],[9E+09,9E+09,9E+09,9E+09,9E+09,9E+09]], v30, seam13, weld13\Weave:=weave1, z0, tWeldGun;
		ArcLEnd [[1252.15,1123.77,-4.38],[0.0408099,-0.343604,0.937896,0.0249613],[0,0,-1,1],[9E+09,9E+09,9E+09,9E+09,9E+09,9E+09]], v30, seam13, weld13\Weave:=weave1, fine, tWeldGun;
		MoveL [[1252.16,1123.77,5.63],[0.0408163,-0.343603,0.937896,0.024963],[0,0,-1,1],[9E+09,9E+09,9E+09,9E+09,9E+09,9E+09]], v50, z5, tWeldGun;
		MoveL [[1218.35,1107.77,5.63],[0.0408141,-0.343619,0.93789,0.0249564],[0,0,-1,1],[9E+09,9E+09,9E+09,9E+09,9E+09,9E+09]], v50, z5, tWeldGun;
		ArcLStart [[1217.33,1105.75,-0.34],[0.0407858,-0.343595,0.9379,0.0249689],[0,0,-1,1],[9E+09,9E+09,9E+09,9E+09,9E+09,9E+09]], v30, seam13, weld13\Weave:=weave1, fine, tWeldGun;
		ArcL [[1235.32,1105.74,-0.83],[0.0407834,-0.343593,0.937901,0.0249685],[0,0,0,1],[9E+09,9E+09,9E+09,9E+09,9E+09,9E+09]], v30, seam13, weld13\Weave:=weave1, z0, tWeldGun;
		ArcLEnd [[1252.32,1106.74,-1.47],[0.0407755,-0.343593,0.937901,0.0249664],[0,0,0,1],[9E+09,9E+09,9E+09,9E+09,9E+09,9E+09]], v30, seam13, weld13\Weave:=weave1, fine, tWeldGun;
		MoveL [[1252.33,1106.73,4.58],[0.0407685,-0.343569,0.93791,0.0249759],[0,0,0,1],[9E+09,9E+09,9E+09,9E+09,9E+09,9E+09]], v50, z5, tWeldGun;
		MoveL [[1218.31,1078.74,4.59],[0.040771,-0.3436,0.937899,0.0249658],[0,0,0,1],[9E+09,9E+09,9E+09,9E+09,9E+09,9E+09]], v50, z5, tWeldGun;
		ArcLStart [[1218.31,1079.74,0.61],[0.0407777,-0.343597,0.937899,0.0249755],[0,0,0,1],[9E+09,9E+09,9E+09,9E+09,9E+09,9E+09]], v30, seam13, weld13\Weave:=weave1, fine, tWeldGun;
		ArcL [[1237.30,1079.73,-1.41],[0.0407649,-0.343601,0.937899,0.0249658],[0,-1,0,1],[9E+09,9E+09,9E+09,9E+09,9E+09,9E+09]], v30, seam13, weld13\Weave:=weave1, z0, tWeldGun;
		ArcLEnd [[1251.30,1079.73,-1.40],[0.0407691,-0.343617,0.937893,0.0249555],[0,-1,0,1],[9E+09,9E+09,9E+09,9E+09,9E+09,9E+09]], v30, seam13, weld13\Weave:=weave1, fine, tWeldGun;
		MoveL [[1251.28,1079.73,2.56],[0.0407531,-0.343632,0.937888,0.0249445],[0,-1,0,1],[9E+09,9E+09,9E+09,9E+09,9E+09,9E+09]], v50, z5, tWeldGun;
		MoveL [[1217.28,1062.74,2.57],[0.0407537,-0.343656,0.93788,0.0249386],[0,-1,0,1],[9E+09,9E+09,9E+09,9E+09,9E+09,9E+09]], v50, z5, tWeldGun;
		ArcLStart [[1218.27,1061.72,0.57],[0.0407503,-0.343644,0.937884,0.0249421],[0,-1,0,1],[9E+09,9E+09,9E+09,9E+09,9E+09,9E+09]], v30, seam13, weld13\Weave:=weave1, fine, tWeldGun;
		ArcL [[1235.27,1061.73,1.58],[0.0407513,-0.343648,0.937883,0.0249446],[0,-1,0,1],[9E+09,9E+09,9E+09,9E+09,9E+09,9E+09]], v30, seam13, weld13\Weave:=weave1, z0, tWeldGun;
		ArcLEnd [[1250.26,1061.72,-0.44],[0.040741,-0.343663,0.937878,0.0249305],[0,-1,0,1],[9E+09,9E+09,9E+09,9E+09,9E+09,9E+09]], v30, seam13, weld13\Weave:=weave1, fine, tWeldGun;
		MoveL [[1250.27,1061.72,3.58],[0.0407457,-0.343626,0.937891,0.0249561],[0,-1,0,1],[9E+09,9E+09,9E+09,9E+09,9E+09,9E+09]], v50, z5, tWeldGun;
		MoveL [[1217.25,1031.71,3.57],[0.0407356,-0.343657,0.93788,0.024937],[0,-1,0,1],[9E+09,9E+09,9E+09,9E+09,9E+09,9E+09]], v50, z5, tWeldGun;
		ArcLStart [[1218.25,1030.71,-0.42],[0.0407355,-0.343661,0.937879,0.024936],[0,-1,0,1],[9E+09,9E+09,9E+09,9E+09,9E+09,9E+09]], v30, seam13, weld13\Weave:=weave1, fine, tWeldGun;
		ArcL [[1235.23,1031.71,0.37],[0.0407361,-0.343678,0.937873,0.0249287],[0,-1,0,1],[9E+09,9E+09,9E+09,9E+09,9E+09,9E+09]], v30, seam13, weld13\Weave:=weave1, z0, tWeldGun;
		ArcLEnd [[1253.22,1031.71,-1.28],[0.040733,-0.343691,0.937868,0.0249258],[0,-1,0,1],[9E+09,9E+09,9E+09,9E+09,9E+09,9E+09]], v30, seam13, weld13\Weave:=weave1, fine, tWeldGun;
		MoveL [[1253.24,1031.70,7.59],[0.0407261,-0.343657,0.937881,0.0249426],[0,-1,0,1],[9E+09,9E+09,9E+09,9E+09,9E+09,9E+09]], v50, z5, tWeldGun;
		MoveL [[1218.21,1012.71,7.56],[0.0407212,-0.34372,0.937859,0.0249112],[0,-1,0,1],[9E+09,9E+09,9E+09,9E+09,9E+09,9E+09]], v50, z5, tWeldGun;
		ArcLStart [[1219.19,1012.70,0.41],[0.0406994,-0.343724,0.937858,0.0249069],[0,-1,0,1],[9E+09,9E+09,9E+09,9E+09,9E+09,9E+09]], v30, seam13, weld13\Weave:=weave1, fine, tWeldGun;
		ArcL [[1234.19,1012.70,0.19],[0.040717,-0.343746,0.937849,0.0249003],[0,-1,0,1],[9E+09,9E+09,9E+09,9E+09,9E+09,9E+09]], v30, seam13, weld13\Weave:=weave1, z0, tWeldGun;
		ArcLEnd [[1254.29,1012.70,0.58],[0.0407164,-0.343752,0.937847,0.0249024],[0,-1,0,1],[9E+09,9E+09,9E+09,9E+09,9E+09,9E+09]], v30, seam13, weld13\Weave:=weave1, fine, tWeldGun;
		MoveL [[1249.19,1012.70,5.57],[0.0407152,-0.343739,0.937852,0.024904],[0,-1,0,1],[9E+09,9E+09,9E+09,9E+09,9E+09,9E+09]], v50, z5, tWeldGun;
		MoveL [[1215.19,984.71,5.58],[0.0407174,-0.343758,0.937845,0.0248984],[0,-1,0,1],[9E+09,9E+09,9E+09,9E+09,9E+09,9E+09]], v50, z5, tWeldGun;
		ArcLStart [[1217.17,983.70,0.67],[0.0407029,-0.343745,0.93785,0.0249058],[0,-1,0,1],[9E+09,9E+09,9E+09,9E+09,9E+09,9E+09]], v30, seam13, weld13\Weave:=weave1, fine, tWeldGun;
		ArcL [[1236.17,983.70,0.45],[0.0407039,-0.343744,0.93785,0.0249077],[0,-1,0,1],[9E+09,9E+09,9E+09,9E+09,9E+09,9E+09]], v30, seam13, weld13\Weave:=weave1, z0, tWeldGun;
		ArcLEnd [[1254.38,984.69,-0.62],[0.040693,-0.34378,0.937838,0.024888],[0,-1,0,1],[9E+09,9E+09,9E+09,9E+09,9E+09,9E+09]], v30, seam13, weld13\Weave:=weave1, fine, tWeldGun;
		MoveL [[1251.17,984.70,4.58],[0.0407066,-0.343766,0.937843,0.0248929],[0,-1,0,1],[9E+09,9E+09,9E+09,9E+09,9E+09,9E+09]], v50, z5, tWeldGun;
		MoveL [[1217.16,967.70,4.59],[0.0407038,-0.343762,0.937844,0.024901],[0,-1,0,1],[9E+09,9E+09,9E+09,9E+09,9E+09,9E+09]], v50, z5, tWeldGun;
		ArcLStart [[1217.16,967.70,1.35],[0.0407013,-0.343763,0.937844,0.0248999],[0,-1,0,1],[9E+09,9E+09,9E+09,9E+09,9E+09,9E+09]], v30, seam13, weld13\Weave:=weave1, fine, tWeldGun;
		ArcL [[1237.13,967.32,0.95],[0.0406909,-0.343788,0.937836,0.024889],[0,-1,0,1],[9E+09,9E+09,9E+09,9E+09,9E+09,9E+09]], v30, seam13, weld13\Weave:=weave1, z0, tWeldGun;
		ArcLEnd [[1254.99,967.46,0.15],[0.0406905,-0.343806,0.937829,0.0248815],[0,-1,0,1],[9E+09,9E+09,9E+09,9E+09,9E+09,9E+09]], v30, seam13, weld13\Weave:=weave1, fine, tWeldGun;
		MoveL [[1252.15,967.38,4.20],[0.0406956,-0.343771,0.937841,0.0249014],[0,-1,0,1],[9E+09,9E+09,9E+09,9E+09,9E+09,9E+09]], v50, z5, tWeldGun;
		MoveL [[1216.32,938.36,4.17],[0.0406707,-0.343788,0.937836,0.0248855],[0,-1,0,1],[9E+09,9E+09,9E+09,9E+09,9E+09,9E+09]], v50, z5, tWeldGun;
		ArcLStart [[1219.22,937.56,0.05],[0.0406628,-0.343801,0.937832,0.0248848],[0,-1,0,1],[9E+09,9E+09,9E+09,9E+09,9E+09,9E+09]], v30, seam13, weld13\Weave:=weave1, fine, tWeldGun;
		ArcL [[1235.29,937.71,-0.24],[0.0406652,-0.343818,0.937826,0.0248812],[0,-1,0,1],[9E+09,9E+09,9E+09,9E+09,9E+09,9E+09]], v30, seam13, weld13\Weave:=weave1, z0, tWeldGun;
		ArcLEnd [[1256.16,938.35,-0.47],[0.0406446,-0.343811,0.937829,0.024874],[0,-1,0,1],[9E+09,9E+09,9E+09,9E+09,9E+09,9E+09]], v30, seam13, weld13\Weave:=weave1, fine, tWeldGun;
		MoveL [[1253.92,938.36,55.19],[0.0406807,-0.343816,0.937826,0.0248645],[0,-1,0,1],[9E+09,9E+09,9E+09,9E+09,9E+09,9E+09]], v50, z5, tWeldGun;
		MoveL [[1213.89,920.33,3.90],[0.0406484,-0.343804,0.937832,0.0248613],[0,-1,0,1],[9E+09,9E+09,9E+09,9E+09,9E+09,9E+09]], v50, z5, tWeldGun;
		ArcLStart [[1215.88,920.33,-3.10],[0.0406459,-0.34382,0.937826,0.0248548],[0,-1,0,1],[9E+09,9E+09,9E+09,9E+09,9E+09,9E+09]], v30, seam13, weld13\Weave:=weave1, fine, tWeldGun;
		ArcL [[1232.82,921.15,-3.09],[0.0406489,-0.343813,0.937829,0.0248591],[0,-1,0,1],[9E+09,9E+09,9E+09,9E+09,9E+09,9E+09]], v30, seam13, weld13\Weave:=weave1, z0, tWeldGun;
		ArcLEnd [[1248.81,922.14,-3.09],[0.0406439,-0.343813,0.937829,0.0248592],[0,-1,0,1],[9E+09,9E+09,9E+09,9E+09,9E+09,9E+09]], v30, seam13, weld13\Weave:=weave1, fine, tWeldGun;
		MoveL [[1248.80,922.15,2.90],[0.040642,-0.343822,0.937826,0.0248561],[0,-1,0,1],[9E+09,9E+09,9E+09,9E+09,9E+09,9E+09]], v50, z5, tWeldGun;
		MoveL [[1215.08,891.34,2.86],[0.0406048,-0.343782,0.937842,0.0248716],[0,-1,0,1],[9E+09,9E+09,9E+09,9E+09,9E+09,9E+09]], v50, z5, tWeldGun;
		ArcLStart [[1216.08,891.34,-4.13],[0.0406032,-0.343789,0.937839,0.0248708],[0,-1,0,1],[9E+09,9E+09,9E+09,9E+09,9E+09,9E+09]], v30, seam13, weld13\Weave:=weave1, fine, tWeldGun;
		ArcL [[1236.06,891.52,-4.14],[0.0405993,-0.34379,0.937839,0.0248689],[0,-1,0,1],[9E+09,9E+09,9E+09,9E+09,9E+09,9E+09]], v30, seam13, weld13\Weave:=weave1, z0, tWeldGun;
		ArcLEnd [[1252.06,892.52,-4.14],[0.0405953,-0.343795,0.937837,0.0248677],[0,-1,0,1],[9E+09,9E+09,9E+09,9E+09,9E+09,9E+09]], v30, seam13, weld13\Weave:=weave1, fine, tWeldGun;
		MoveL [[1252.05,892.52,5.86],[0.0405953,-0.343809,0.937833,0.0248602],[0,-1,0,1],[9E+09,9E+09,9E+09,9E+09,9E+09,9E+09]], v50, z5, tWeldGun;
		MoveL [[1213.05,874.50,5.85],[0.0405839,-0.343783,0.937842,0.0248762],[0,-1,0,1],[9E+09,9E+09,9E+09,9E+09,9E+09,9E+09]], v50, z5, tWeldGun;
		ArcLStart [[1215.05,874.50,-4.14],[0.0405835,-0.343778,0.937844,0.0248798],[0,-1,0,1],[9E+09,9E+09,9E+09,9E+09,9E+09,9E+09]], v30, seam13, weld13\Weave:=weave1, fine, tWeldGun;
		ArcL [[1234.04,874.50,-4.14],[0.0405818,-0.343781,0.937843,0.0248792],[0,-1,0,1],[9E+09,9E+09,9E+09,9E+09,9E+09,9E+09]], v30, seam13, weld13\Weave:=weave1, z0, tWeldGun;
		ArcLEnd [[1253.05,875.50,-4.13],[0.0405835,-0.343789,0.93784,0.0248773],[0,-1,0,1],[9E+09,9E+09,9E+09,9E+09,9E+09,9E+09]], v30, seam13, weld13\Weave:=weave1, fine, tWeldGun;
		MoveL [[1253.04,875.50,5.86],[0.0405799,-0.343802,0.937836,0.0248664],[0,-1,0,1],[9E+09,9E+09,9E+09,9E+09,9E+09,9E+09]], v50, z5, tWeldGun;
		MoveL [[1219.04,846.50,5.87],[0.0405814,-0.343797,0.937837,0.0248748],[0,-1,0,1],[9E+09,9E+09,9E+09,9E+09,9E+09,9E+09]], v50, z5, tWeldGun;
		ArcLStart [[1217.03,846.49,-5.13],[0.0405739,-0.343789,0.937841,0.0248765],[0,-1,0,1],[9E+09,9E+09,9E+09,9E+09,9E+09,9E+09]], v30, seam13, weld13\Weave:=weave1, fine, tWeldGun;
		ArcL [[1233.02,846.49,-5.13],[0.0405723,-0.343809,0.937833,0.0248709],[0,-1,0,1],[9E+09,9E+09,9E+09,9E+09,9E+09,9E+09]], v30, seam13, weld13\Weave:=weave1, z0, tWeldGun;
		ArcLEnd [[1255.02,846.49,-5.12],[0.04057,-0.34381,0.937833,0.0248711],[0,-1,0,1],[9E+09,9E+09,9E+09,9E+09,9E+09,9E+09]], v30, seam13, weld13\Weave:=weave1, fine, tWeldGun;
		MoveL [[1255.01,846.49,6.87],[0.0405675,-0.343815,0.937831,0.0248659],[0,-1,0,1],[9E+09,9E+09,9E+09,9E+09,9E+09,9E+09]], v50, z5, tWeldGun;
		MoveL [[1216.00,828.48,6.86],[0.0405505,-0.343817,0.937832,0.024863],[0,-1,0,1],[9E+09,9E+09,9E+09,9E+09,9E+09,9E+09]], v50, z5, tWeldGun;
		ArcLStart [[1216.98,829.08,-3.74],[0.0405476,-0.343835,0.937825,0.0248597],[0,-1,0,1],[9E+09,9E+09,9E+09,9E+09,9E+09,9E+09]], v30, seam13, weld13\Weave:=weave1, fine, tWeldGun;
		ArcL [[1230.58,829.17,-3.93],[0.0405483,-0.343827,0.937828,0.0248616],[0,-1,0,1],[9E+09,9E+09,9E+09,9E+09,9E+09,9E+09]], v30, seam13, weld13\Weave:=weave1, z0, tWeldGun;
		ArcLEnd [[1251.37,830.10,-3.93],[0.0405496,-0.34385,0.93782,0.0248559],[0,-1,0,1],[9E+09,9E+09,9E+09,9E+09,9E+09,9E+09]], v30, seam13, weld13\Weave:=weave1, fine, tWeldGun;
		MoveL [[1251.35,830.07,5.04],[0.0405293,-0.343847,0.937822,0.0248461],[0,-1,0,1],[9E+09,9E+09,9E+09,9E+09,9E+09,9E+09]], v50, z5, tWeldGun;
		MoveL [[1217.30,803.07,5.01],[0.0405112,-0.34391,0.9378,0.0248196],[0,-1,0,1],[9E+09,9E+09,9E+09,9E+09,9E+09,9E+09]], v50, z5, tWeldGun;
		ArcLStart [[1217.30,803.06,-5.99],[0.0405053,-0.3439,0.937804,0.0248222],[0,-1,0,1],[9E+09,9E+09,9E+09,9E+09,9E+09,9E+09]], v30, seam13, weld13\Weave:=weave1, fine, tWeldGun;
		ArcL [[1232.29,803.07,-5.98],[0.0405122,-0.343919,0.937797,0.0248195],[0,-1,0,1],[9E+09,9E+09,9E+09,9E+09,9E+09,9E+09]], v30, seam13, weld13\Weave:=weave1, z0, tWeldGun;
		ArcLEnd [[1252.28,803.06,-5.98],[0.0405049,-0.34392,0.937797,0.0248194],[0,-1,0,1],[9E+09,9E+09,9E+09,9E+09,9E+09,9E+09]], v30, seam13, weld13\Weave:=weave1, fine, tWeldGun;
		MoveL [[1252.28,803.06,1.02],[0.0405032,-0.343924,0.937795,0.0248166],[0,-1,0,1],[9E+09,9E+09,9E+09,9E+09,9E+09,9E+09]], v50, z5, tWeldGun;
		MoveL [[1213.27,784.04,1.00],[0.0404823,-0.343918,0.937799,0.0248174],[0,-1,0,1],[9E+09,9E+09,9E+09,9E+09,9E+09,9E+09]], v50, z5, tWeldGun;
		ArcLStart [[1215.66,783.23,-5.19],[0.0404755,-0.343914,0.9378,0.0248192],[0,-1,0,1],[9E+09,9E+09,9E+09,9E+09,9E+09,9E+09]], v30, seam13, weld13\Weave:=weave1, fine, tWeldGun;
		ArcL [[1232.04,784.43,-5.19],[0.0404754,-0.343928,0.937795,0.0248153],[0,-1,0,1],[9E+09,9E+09,9E+09,9E+09,9E+09,9E+09]], v30, seam13, weld13\Weave:=weave1, z0, tWeldGun;
		ArcLEnd [[1248.60,785.55,-5.18],[0.04047,-0.343941,0.937791,0.0248121],[0,-1,0,1],[9E+09,9E+09,9E+09,9E+09,9E+09,9E+09]], v30, seam13, weld13\Weave:=weave1, fine, tWeldGun;
		MoveL [[1248.54,785.54,1.21],[0.0404621,-0.343941,0.937791,0.0248116],[0,-1,0,1],[9E+09,9E+09,9E+09,9E+09,9E+09,9E+09]], v50, z5, tWeldGun;
		MoveL [[1215.54,755.54,1.22],[0.0404644,-0.343949,0.937788,0.0248106],[0,-1,0,1],[9E+09,9E+09,9E+09,9E+09,9E+09,9E+09]], v50, z5, tWeldGun;
		ArcLStart [[1216.51,755.54,-6.81],[0.0404506,-0.343967,0.937782,0.0248102],[0,-1,0,1],[9E+09,9E+09,9E+09,9E+09,9E+09,9E+09]], v30, seam13, weld13\Weave:=weave1, fine, tWeldGun;
		ArcL [[1235.49,756.54,-5.81],[0.0404418,-0.343975,0.937779,0.0248107],[0,-1,0,1],[9E+09,9E+09,9E+09,9E+09,9E+09,9E+09]], v30, seam13, weld13\Weave:=weave1, z0, tWeldGun;
		ArcLEnd [[1253.47,756.93,-5.82],[0.0404219,-0.34394,0.937793,0.0248293],[0,-1,0,1],[9E+09,9E+09,9E+09,9E+09,9E+09,9E+09]], v30, seam13, weld13\Weave:=weave1, fine, tWeldGun;
		MoveL [[1253.47,756.93,1.18],[0.0404206,-0.343937,0.937794,0.0248336],[0,-1,0,1],[9E+09,9E+09,9E+09,9E+09,9E+09,9E+09]], v50, z5, tWeldGun;
		MoveL [[1214.46,737.93,1.19],[0.0404154,-0.343953,0.937788,0.0248267],[0,-1,0,1],[9E+09,9E+09,9E+09,9E+09,9E+09,9E+09]], v50, z5, tWeldGun;
		ArcLStart [[1216.48,737.89,-5.82],[0.0403983,-0.343892,0.937811,0.0248534],[0,-1,0,1],[9E+09,9E+09,9E+09,9E+09,9E+09,9E+09]], v30, seam13, weld13\Weave:=weave1, fine, tWeldGun;
		ArcL [[1235.48,738.89,-5.82],[0.0403951,-0.343901,0.937808,0.0248528],[0,-1,0,1],[9E+09,9E+09,9E+09,9E+09,9E+09,9E+09]], v30, seam13, weld13\Weave:=weave1, z0, tWeldGun;
		ArcLEnd [[1250.47,739.89,-5.82],[0.0403952,-0.343904,0.937806,0.0248536],[0,-1,0,1],[9E+09,9E+09,9E+09,9E+09,9E+09,9E+09]], v30, seam13, weld13\Weave:=weave1, fine, tWeldGun;
		MoveL [[1250.46,739.89,0.18],[0.0403903,-0.343919,0.937802,0.0248438],[0,-1,0,1],[9E+09,9E+09,9E+09,9E+09,9E+09,9E+09]], v50, z5, tWeldGun;
		MoveL [[1217.46,707.89,0.19],[0.0403882,-0.343915,0.937803,0.0248515],[0,-1,0,1],[9E+09,9E+09,9E+09,9E+09,9E+09,9E+09]], v50, z5, tWeldGun;
		ArcLStart [[1217.43,707.90,-6.83],[0.0403736,-0.343919,0.937802,0.0248638],[0,-1,0,1],[9E+09,9E+09,9E+09,9E+09,9E+09,9E+09]], v30, seam13, weld13\Weave:=weave1, fine, tWeldGun;
		ArcL [[1233.42,708.89,-6.83],[0.040368,-0.343924,0.9378,0.0248618],[0,-1,0,1],[9E+09,9E+09,9E+09,9E+09,9E+09,9E+09]], v30, seam13, weld13\Weave:=weave1, z0, tWeldGun;
		ArcLEnd [[1253.42,710.89,-6.83],[0.0403675,-0.343926,0.9378,0.0248608],[0,-1,0,1],[9E+09,9E+09,9E+09,9E+09,9E+09,9E+09]], v30, seam13, weld13\Weave:=weave1, fine, tWeldGun;
		MoveL [[1253.41,710.89,0.17],[0.040368,-0.343939,0.937795,0.0248564],[0,-1,0,1],[9E+09,9E+09,9E+09,9E+09,9E+09,9E+09]], v50, z5, tWeldGun;
		MoveL [[1216.41,691.89,0.17],[0.0403642,-0.343931,0.937798,0.0248621],[0,-1,0,1],[9E+09,9E+09,9E+09,9E+09,9E+09,9E+09]], v50, z5, tWeldGun;
		ArcLStart [[1219.39,691.08,-6.44],[0.0403468,-0.343946,0.937793,0.0248542],[0,-1,0,1],[9E+09,9E+09,9E+09,9E+09,9E+09,9E+09]], v30, seam13, weld13\Weave:=weave1, fine, tWeldGun;
		ArcL [[1238.39,691.68,-6.83],[0.0403491,-0.343953,0.937791,0.0248522],[0,-1,0,1],[9E+09,9E+09,9E+09,9E+09,9E+09,9E+09]], v30, seam13, weld13\Weave:=weave1, z0, tWeldGun;
		ArcLEnd [[1250.58,691.70,-6.83],[0.0403468,-0.343955,0.93779,0.0248527],[0,-1,0,1],[9E+09,9E+09,9E+09,9E+09,9E+09,9E+09]], v30, seam13, weld13\Weave:=weave1, fine, tWeldGun;
		MoveL [[1250.58,691.69,1.17],[0.0403407,-0.343958,0.937789,0.0248524],[0,-1,0,1],[9E+09,9E+09,9E+09,9E+09,9E+09,9E+09]], v50, z5, tWeldGun;
		MoveL [[1219.58,661.69,1.18],[0.0403432,-0.343964,0.937787,0.0248475],[0,-1,0,1],[9E+09,9E+09,9E+09,9E+09,9E+09,9E+09]], v50, z5, tWeldGun;
		ArcLStart [[1218.57,661.69,-7.82],[0.0403368,-0.343974,0.937784,0.0248464],[0,-1,0,1],[9E+09,9E+09,9E+09,9E+09,9E+09,9E+09]], v30, seam13, weld13\Weave:=weave1, fine, tWeldGun;
		ArcL [[1235.56,661.69,-7.82],[0.0403343,-0.343977,0.937783,0.0248494],[0,-1,0,1],[9E+09,9E+09,9E+09,9E+09,9E+09,9E+09]], v30, seam13, weld13\Weave:=weave1, z0, tWeldGun;
		ArcLEnd [[1253.56,661.69,-7.81],[0.0403362,-0.343981,0.937781,0.0248471],[0,-1,0,1],[9E+09,9E+09,9E+09,9E+09,9E+09,9E+09]], v30, seam13, weld13\Weave:=weave1, fine, tWeldGun;
		MoveL [[1253.55,661.69,2.18],[0.0403306,-0.343982,0.937781,0.024845],[0,-1,0,1],[9E+09,9E+09,9E+09,9E+09,9E+09,9E+09]], v50, z5, tWeldGun;
		MoveL [[1213.59,644.60,2.19],[0.0403311,-0.343984,0.93778,0.024847],[0,-1,0,1],[9E+09,9E+09,9E+09,9E+09,9E+09,9E+09]], v50, z5, tWeldGun;
		ArcLStart [[1218.58,645.00,-7.21],[0.0403274,-0.343984,0.93778,0.0248484],[0,-1,0,1],[9E+09,9E+09,9E+09,9E+09,9E+09,9E+09]], v30, seam13, weld13\Weave:=weave1, fine, tWeldGun;
		ArcL [[1237.57,645.40,-7.21],[0.0403245,-0.343993,0.937777,0.0248454],[0,-1,0,1],[9E+09,9E+09,9E+09,9E+09,9E+09,9E+09]], v30, seam13, weld13\Weave:=weave1, z0, tWeldGun;
		ArcLEnd [[1252.57,645.46,-7.21],[0.0403202,-0.343998,0.937776,0.0248426],[0,-1,0,1],[9E+09,9E+09,9E+09,9E+09,9E+09,9E+09]], v30, seam13, weld13\Weave:=weave1, fine, tWeldGun;
		MoveL [[1252.57,645.46,1.79],[0.0403225,-0.343995,0.937777,0.0248459],[0,-1,0,1],[9E+09,9E+09,9E+09,9E+09,9E+09,9E+09]], v50, z5, tWeldGun;
		MoveL [[1215.55,616.46,1.79],[0.040315,-0.34401,0.937771,0.0248428],[0,-1,0,1],[9E+09,9E+09,9E+09,9E+09,9E+09,9E+09]], v50, z5, tWeldGun;
		ArcLStart [[1216.54,616.44,-8.23],[0.0403004,-0.344002,0.937775,0.0248364],[0,-1,0,1],[9E+09,9E+09,9E+09,9E+09,9E+09,9E+09]], v30, seam13, weld13\Weave:=weave1, fine, tWeldGun;
		ArcL [[1235.52,616.44,-8.24],[0.0402891,-0.344013,0.937771,0.024836],[0,-1,0,1],[9E+09,9E+09,9E+09,9E+09,9E+09,9E+09]], v30, seam13, weld13\Weave:=weave1, z0, tWeldGun;
		ArcLEnd [[1253.53,617.44,-8.23],[0.0402902,-0.344008,0.937773,0.0248375],[0,-1,0,1],[9E+09,9E+09,9E+09,9E+09,9E+09,9E+09]], v30, seam13, weld13\Weave:=weave1, fine, tWeldGun;
		MoveL [[1253.52,617.44,6.76],[0.0402872,-0.344022,0.937768,0.0248307],[0,-1,0,1],[9E+09,9E+09,9E+09,9E+09,9E+09,9E+09]], v50, z5, tWeldGun;
		MoveL [[1253.40,617.46,417.48],[0.040184,-0.343928,0.937804,0.0249779],[0,-2,0,1],[9E+09,9E+09,9E+09,9E+09,9E+09,9E+09]], v50, z5, tWeldGun;
	ENDPROC

ENDMODULE